src/assets/filled/Support24.svg

<?xml version="1.0" encoding="UTF-8"?>
<svg width="24" height="24" viewBox="0 0 24 24" xmlns="http://www.w3.org/2000/svg">
 <path d="m18 2h-12c-1.66 0-3 1.33-3 2.97v10.91c0 1.64 1.34 2.97 3 2.97h0.76c0.8 0 1.56 0.31 2.12 0.87l1.71 1.69c0.78 0.77 2.05 0.77 2.83 0l1.71-1.69c0.56-0.56 1.33-0.87 2.12-0.87h0.75c1.66 0 3-1.33 3-2.97v-10.91c0-1.64-1.34-2.97-3-2.97zm-7.62 11.01c0.41 0 0.75 0.34 0.75 0.75s-0.34 0.75-0.75 0.75h-2.68c-0.44 0-0.85-0.21-1.11-0.57-0.25-0.34-0.31-0.76-0.19-1.16 0.35-1.07 1.21-1.65 1.97-2.17 0.8-0.54 1.25-0.88 1.25-1.46 0-0.52-0.42-0.94-0.94-0.94s-0.93 0.43-0.93 0.95c0 0.41-0.34 0.75-0.75 0.75s-0.75-0.34-0.75-0.75c0-1.34 1.09-2.44 2.44-2.44s2.44 1.09 2.44 2.44c0 1.41-1.06 2.13-1.91 2.71-0.53 0.36-1.03 0.7-1.28 1.15h2.44v-0.01zm6.62 0.07h-0.21v0.69c0 0.41-0.34 0.75-0.75 0.75s-0.75-0.34-0.75-0.75v-0.69h-1.96-0.01c-0.49 0-0.94-0.26-1.19-0.68-0.25-0.43-0.25-0.96 0-1.38 0.68-1.17 1.47-2.5 2.19-3.66 0.32-0.51 0.93-0.74 1.5-0.58 0.57 0.17 0.97 0.69 0.96 1.29v3.52h0.22c0.41 0 0.75 0.34 0.75 0.75s-0.34 0.74-0.75 0.74z"/>
 <path d="m15.29 11.58v-2.94c-0.59 0.96-1.2 1.99-1.75 2.93h1.75v0.01z"/>
</svg>

<svg width="24" height="24" viewBox="0 0 24 24"  xmlns="http://www.w3.org/2000/svg">
<path d="M18 2H6C4.34 2 3 3.33 3 4.97V15.88C3 17.52 4.34 18.85 6 18.85H6.76C7.56 18.85 8.32 19.16 8.88 19.72L10.59 21.41C11.37 22.18 12.64 22.18 13.42 21.41L15.13 19.72C15.69 19.16 16.46 18.85 17.25 18.85H18C19.66 18.85 21 17.52 21 15.88V4.97C21 3.33 19.66 2 18 2ZM10.38 13.01C10.79 13.01 11.13 13.35 11.13 13.76C11.13 14.17 10.79 14.51 10.38 14.51H7.7C7.26 14.51 6.85 14.3 6.59 13.94C6.34 13.6 6.28 13.18 6.4 12.78C6.75 11.71 7.61 11.13 8.37 10.61C9.17 10.07 9.62 9.73 9.62 9.15C9.62 8.63 9.2 8.21 8.68 8.21C8.16 8.21 7.75 8.64 7.75 9.16C7.75 9.57 7.41 9.91 7 9.91C6.59 9.91 6.25 9.57 6.25 9.16C6.25 7.82 7.34 6.72 8.69 6.72C10.04 6.72 11.13 7.81 11.13 9.16C11.13 10.57 10.07 11.29 9.22 11.87C8.69 12.23 8.19 12.57 7.94 13.02H10.38V13.01ZM17 13.08H16.79V13.77C16.79 14.18 16.45 14.52 16.04 14.52C15.63 14.52 15.29 14.18 15.29 13.77V13.08H13.33C13.33 13.08 13.33 13.08 13.32 13.08C12.83 13.08 12.38 12.82 12.13 12.4C11.88 11.97 11.88 11.44 12.13 11.02C12.81 9.85 13.6 8.52 14.32 7.36C14.64 6.85 15.25 6.62 15.82 6.78C16.39 6.95 16.79 7.47 16.78 8.07V11.59H17C17.41 11.59 17.75 11.93 17.75 12.34C17.75 12.75 17.41 13.08 17 13.08Z" />
<path d="M15.29 11.5796V8.63965C14.7 9.59965 14.09 10.6296 13.54 11.5696H15.29V11.5796Z" />
</svg>
